paperclip-check.svg

<svg fill="currentColor" viewBox="0 0 24 24"><path d="M13.5 21.36c.2.48.47.93.79 1.34A5.497 5.497 0 0 1 7 17.5V5c0-2.21 1.79-4 4-4s4 1.79 4 4v9.54c-.97.87-1.65 2.04-1.9 3.38-.19.05-.39.08-.6.08a2.5 2.5 0 0 1-2.5-2.5V6h1.5v9.5c0 .55.45 1 1 1s1-.45 1-1V5a2.5 2.5 0 0 0-5 0v12.5c0 2.21 1.79 4 4 4 .34 0 .67-.06 1-.14M18 6h-1.5v7.55c.47-.21.97-.37 1.5-.46zm3.34 9.84-3.59 3.59-1.59-1.59L15 19l2.75 3 4.75-4.75z"/></svg>

<svg  viewBox="0 0 24 24" fill="currentColor"><path  d="M13.5 21.36C13.7 21.84 13.97 22.29 14.29 22.7C13.73 22.89 13.13 23 12.5 23C9.46 23 7 20.54 7 17.5V5C7 2.79 8.79 1 11 1S15 2.79 15 5V14.54C14.03 15.41 13.35 16.58 13.1 17.92C12.91 17.97 12.71 18 12.5 18C11.12 18 10 16.88 10 15.5V6H11.5V15.5C11.5 16.05 11.95 16.5 12.5 16.5S13.5 16.05 13.5 15.5V5C13.5 3.62 12.38 2.5 11 2.5S8.5 3.62 8.5 5V17.5C8.5 19.71 10.29 21.5 12.5 21.5C12.84 21.5 13.17 21.44 13.5 21.36M18 6H16.5V13.55C16.97 13.34 17.47 13.18 18 13.09V6M21.34 15.84L17.75 19.43L16.16 17.84L15 19L17.75 22L22.5 17.25L21.34 15.84Z"/></svg>
